X:81
T:Charming Polly. JJo.081, The
B:J.Johnson Choice Collection Vol 8 1758
Z:vmp.Simon Wilson 2013 www.village-music-project.org.uk
Z:Dance added by John Chambers 2017
M:2/4
L:1/8
%Q:1/4=100
K:A
|:\
ae-ec | cA2c | Bd2B | BG2E |\
CEAc | DFBd | caec | A2A2 :|\
|:\
cecA | BdBG | Aaf^d | bgeB |
caf^d | bgeB | ce^df | e2E2 :|\
|:\
d2bd | GdEd | {d}c2ec | aecA |\
d2bd | GdEd | caec | A2A,2 :|
%%begintext align
%% Cast off two Cu .|. Cast up two Cu .||.
%% Right hands across .||. back again Left
%% hands across :||: Cross over half figure
%% .||. Right and Left at Top :||:
%%endtext
